!!!OTL: ES DUNKELT IN DEM WALDE
!!!ARE: Europa, Mitteleuropa, Deutschland, Potsdam
!!!SCT: E0679A
!!!YEM: Copyright 1995, estate of Helmut Schaffrath.
**kern
*ICvox
*Ivox
*M2/4
*k[b-]
*F:
{8c
=1
8f
8g
8a
8b-
=2
4cc
8ff
8dd
=3
4cc
8a}
{8cc
=4
8b-
8b-
16a
16cc
8a
=5
4g
8r}
{8cc
=6
8dd
8cc
8dd
8ee
=7
8ff
8dd
8cc}
{8b-
=8
8a
8a
16cc
16b-
8g
=9
4f
8r}
==
!!!AGN: Liebes - Lied, Leid, Klage
!!!ONB: ESAC (Essen Associative Code) Database: ERK2
!!!AMT: simple duple
!!!AIN: vox
!!!EED: Helmut Schaffrath
!!!EEV: 1.0
*-
